material/.icons/material/numeric-9-circle-outline.svg

<svg xmlns="http://www.w3.org/2000/svg" viewBox="0 0 24 24"><path d="M13 17H9v-2h4v-2h-2a2 2 0 01-2-2V9a2 2 0 012-2h2a2 2 0 012 2v6a2 2 0 01-2 2m0-6V9h-2v2h2m-1-9a10 10 0 0110 10 10 10 0 01-10 10A10 10 0 012 12 10 10 0 0112 2m0 2a8 8 0 00-8 8 8 8 0 008 8 8 8 0 008-8 8 8 0 00-8-8z"/></svg>

<?xml version="1.0" encoding="UTF-8"?><!DOCTYPE svg PUBLIC "-//W3C//DTD SVG 1.1//EN" "http://www.w3.org/Graphics/SVG/1.1/DTD/svg11.dtd"><svg xmlns="http://www.w3.org/2000/svg" xmlns:xlink="http://www.w3.org/1999/xlink" version="1.1" id="mdi-numeric-9-circle-outline" width="24" height="24" viewBox="0 0 24 24"><path d="M13,17H9V15H13V13H11A2,2 0 0,1 9,11V9A2,2 0 0,1 11,7H13A2,2 0 0,1 15,9V15A2,2 0 0,1 13,17M13,11V9H11V11H13M12,2A10,10 0 0,1 22,12A10,10 0 0,1 12,22A10,10 0 0,1 2,12A10,10 0 0,1 12,2M12,4A8,8 0 0,0 4,12A8,8 0 0,0 12,20A8,8 0 0,0 20,12A8,8 0 0,0 12,4Z" /></svg>
